src/main/resources/icons/UIDesignerIcons/com/intellij/uiDesigner/icons/listener.svg

<svg xmlns="http://www.w3.org/2000/svg" width="16" height="16" viewBox="0 0 16 16">
  <path fill="#9AA7B0" fill-opacity=".8" fill-rule="evenodd" d="M2.29423169,6 C2.93029835,3.07250078 4.65328522,1 7.997,1 C11.7972283,1 13.2866644,3.07250078 13.7840501,6 L15,6 L15,11.8140055 L13,11.8140055 L13,8.998 C12.998,5.143 11.854,2 7.997,2 C4.146,2 3.002,5.143 3,8.998 L3,11.8140055 L1,11.8140055 L1,6 L2.29423169,6 Z M8,9.5 C6.480625,9.5 5.25,8.269375 5.25,6.75 C5.25,5.230625 6.480625,4 8,4 C9.519375,4 10.75,5.230625 10.75,6.75 C10.75,8.269375 9.519375,9.5 8,9.5 Z M8,10.875 C9.835625,10.875 13.5,11.79625 13.5,13.625 L13.5,15 L2.5,15 L2.5,13.625 C2.5,11.79625 6.164375,10.875 8,10.875 Z"/>
</svg>

<svg xmlns="http://www.w3.org/2000/svg" width="16" height="16" viewBox="0 0 16 16"><rect id="frame" width="16" height="16" fill="none"/><path fill="#9AA7B0" fill-opacity=".8" fill-rule="evenodd" d="M2.294 6c.636-2.927 2.36-5 5.703-5 3.8 0 5.29 2.073 5.787 5H15v5.814h-2V8.998C12.998 5.143 11.854 2 7.997 2 4.146 2 3.002 5.143 3 8.998v2.816H1V6h1.294zM8 9.5A2.75 2.75 0 1 1 8 4a2.75 2.75 0 1 1 0 5.5zm0 1.375c1.836 0 5.5.921 5.5 2.75V15h-11v-1.375c0-1.829 3.664-2.75 5.5-2.75z"/></svg>
